X:1
T:Midland, LM
T:Midland, LM
T: E. S. K, 1893 (Edgar Stillman Kelley?)
T:Public Domain Courtesy of the Cyber Hymnal™
C:E. S. K, 1893 (Edgar Stillman Kelley?)
Z:Public Domain
Z:Courtesy of the Cyber Hymnal™
%%score ( 1 2 ) ( 3 4 )
L:1/8
Q:1/4=115
M:4/4
K:F
V:1 treble 
V:2 treble 
V:3 bass 
V:4 bass 
V:1
 [Fc]4 [FB]2 [FA]2 | [EA]4 [EG]4 | ([CF]4 [EG]2) [FA]2 | [EG]6 z2 | [Fc]4 [FB]2 [FA]2 | %5
 ([^Fd]4 [GB]2) [DG]2 | [CE]4 (F3 G) | [EG]6 z2 | [CG]4 [CF]2 [CE]2 | ([CF]2 [Fc]2 [FB]2) [FA]2 | %10
 (G4 A2) [EG]2 | [Fc]6 z2 | [^Fc]4 [FB]2 [FA]2 | (c2 B2 [^FA]2) G2 | (F2 C2 D2) [CE]2 | [CF]8 |] %16
V:2
 x8 | x8 | x8 | x8 | x8 | x8 | x4 C4 | x8 | x8 | x8 | E6 x2 | x8 | x8 | G4 GD x2 | C6 x2 | x8 |] %16
V:3
 [F,A,]4 [F,D]2 [F,C]2 | [B,C]4 [B,C]4 | A,4 [G,C]2 [F,C]2 | [C,C]6 z2 | A,4 [F,D]2 [F,C]2 | %5
 D6 B,2 | [G,B,]4 ([F,A,]3 [C,C]) | [C,C]6 z2 | [C,B,]4 [C,A,]2 [C,G,]2 | (A,4 D2) [F,C]2 | %10
 [B,C]6 [B,C]2 | [A,C]6 z2 | [D,A,]4 [D,D]2 [D,C]2 | ([G,B,]2 [G,,D]2 [A,,C]2) [B,,B,]2 | %14
 (A,4 G,2) [C,B,]2 | [F,A,]8 |] %16
V:4
 x8 | x8 | A,4 x4 | x8 | A,4 x4 | (D,4 G,2) B,2 | x8 | x8 | x8 | F,6 x2 | x8 | x8 | x8 | x8 | %14
 C,6 x2 | x8 |] %16

